public/assets/img/components/logo-passport.svg

<svg xmlns="http://www.w3.org/2000/svg" width="380" height="64" viewBox="0 0 380 64">
  <defs>
    <linearGradient id="a" x1="50%" x2="50%" y1="0%" y2="100%">
      <stop stop-color="#80DDF3" offset="0%"/>
      <stop stop-color="#4990E2" offset="100%"/>
    </linearGradient>
  </defs>
  <g fill="none" fill-rule="evenodd">
    <path fill="#2E2E2E" d="M107.558594,41.7636719 L118.755859,41.7636719 L118.755859,46 L102.285156,46 L102.285156,20.40625 L107.558594,20.40625 L107.558594,41.7636719 Z M132.466797,46 C132.232421,45.5429665 132.062501,44.9746128 131.957031,44.2949219 C130.726556,45.6660225 129.126963,46.3515625 127.158203,46.3515625 C125.294913,46.3515625 123.750983,45.8125054 122.526367,44.734375 C121.301752,43.6562446 120.689453,42.2968832 120.689453,40.65625 C120.689453,38.6406149 121.436516,37.0937554 122.930664,36.015625 C124.424812,34.9374946 126.58397,34.3925782 129.408203,34.3808594 L131.746094,34.3808594 L131.746094,33.2910156 C131.746094,32.412105 131.52051,31.708987 131.069336,31.1816406 C130.618162,30.6542942 129.906255,30.390625 128.933594,30.390625 C128.078121,30.390625 127.407229,30.5957011 126.920898,31.0058594 C126.434568,31.4160177 126.191406,31.9785121 126.191406,32.6933594 L121.111328,32.6933594 C121.111328,31.5917914 121.451168,30.5722703 122.130859,29.6347656 C122.81055,28.6972609 123.771478,27.9619167 125.013672,27.4287109 C126.255866,26.8955051 127.650383,26.6289062 129.197266,26.6289062 C131.541027,26.6289062 133.40136,27.2177675 134.77832,28.3955078 C136.15528,29.5732481 136.84375,31.228505 136.84375,33.3613281 L136.84375,41.6054688 C136.855469,43.4101653 137.107419,44.775386 137.599609,45.7011719 L137.599609,46 L132.466797,46 Z M128.265625,42.4667969 C129.015629,42.4667969 129.707028,42.2998064 130.339844,41.9658203 C130.972659,41.6318343 131.441405,41.1835966 131.746094,40.6210938 L131.746094,37.3515625 L129.847656,37.3515625 C127.304675,37.3515625 125.951173,38.23046 125.787109,39.9882812 L125.769531,40.2871094 C125.769531,40.919925 125.992185,41.4414042 126.4375,41.8515625 C126.882815,42.2617208 127.492184,42.4667969 128.265625,42.4667969 Z M151.433594,31.7441406 C150.742184,31.6503902 150.132815,31.6035156 149.605469,31.6035156 C147.683584,31.6035156 146.423831,32.2538997 145.826172,33.5546875 L145.826172,46 L140.746094,46 L140.746094,26.9804688 L145.544922,26.9804688 L145.685547,29.2480469 C146.705083,27.5019444 148.117178,26.6289062 149.921875,26.6289062 C150.484378,26.6289062 151.011716,26.7050774 151.503906,26.8574219 L151.433594,31.7441406 Z M164.371094,46 C164.136718,45.5429665 163.966797,44.9746128 163.861328,44.2949219 C162.630853,45.6660225 161.03126,46.3515625 159.0625,46.3515625 C157.199209,46.3515625 155.65528,45.8125054 154.430664,44.734375 C153.206049,43.6562446 152.59375,42.2968832 152.59375,40.65625 C152.59375,38.6406149 153.340813,37.0937554 154.834961,36.015625 C156.329109,34.9374946 158.488267,34.3925782 161.3125,34.3808594 L163.650391,34.3808594 L163.650391,33.2910156 C163.650391,32.412105 163.424807,31.708987 162.973633,31.1816406 C162.522459,30.6542942 161.810552,30.390625 160.837891,30.390625 C159.982418,30.390625 159.311526,30.5957011 158.825195,31.0058594 C158.338865,31.4160177 158.095703,31.9785121 158.095703,32.6933594 L153.015625,32.6933594 C153.015625,31.5917914 153.355465,30.5722703 154.035156,29.6347656 C154.714847,28.6972609 155.675775,27.9619167 156.917969,27.4287109 C158.160162,26.8955051 159.55468,26.6289062 161.101562,26.6289062 C163.445324,26.6289062 165.305657,27.2177675 166.682617,28.3955078 C168.059577,29.5732481 168.748047,31.228505 168.748047,33.3613281 L168.748047,41.6054688 C168.759766,43.4101653 169.011716,44.775386 169.503906,45.7011719 L169.503906,46 L164.371094,46 Z M160.169922,42.4667969 C160.919926,42.4667969 161.611325,42.2998064 162.244141,41.9658203 C162.876956,41.6318343 163.345702,41.1835966 163.650391,40.6210938 L163.650391,37.3515625 L161.751953,37.3515625 C159.208972,37.3515625 157.85547,38.23046 157.691406,39.9882812 L157.673828,40.2871094 C157.673828,40.919925 157.896482,41.4414042 158.341797,41.8515625 C158.787112,42.2617208 159.396481,42.4667969 160.169922,42.4667969 Z M179.505859,39.7949219 L183.039062,26.9804688 L188.347656,26.9804688 L181.931641,46 L177.080078,46 L170.664062,26.9804688 L175.972656,26.9804688 L179.505859,39.7949219 Z M199.105469,46.3515625 C196.316392,46.3515625 194.045907,45.4961023 192.293945,43.7851562 C190.541983,42.0742102 189.666016,39.7949361 189.666016,36.9472656 L189.666016,36.4550781 C189.666016,34.5449123 190.035153,32.8369216 190.773438,31.3310547 C191.511722,29.8251878 192.55761,28.6650431 193.911133,27.8505859 C195.264655,27.0361287 196.808585,26.6289062 198.542969,26.6289062 C201.144544,26.6289062 203.192375,27.4492105 204.686523,29.0898438 C206.180672,30.730477 206.927734,33.0566256 206.927734,36.0683594 L206.927734,38.1425781 L194.816406,38.1425781 C194.98047,39.3847718 195.475582,40.3808556 196.301758,41.1308594 C197.127934,41.8808631 198.173822,42.2558594 199.439453,42.2558594 C201.396494,42.2558594 202.925776,41.5468821 204.027344,40.1289062 L206.523438,42.9238281 C205.761715,44.0019585 204.730475,44.8427704 203.429688,45.4462891 C202.1289,46.0498077 200.687508,46.3515625 199.105469,46.3515625 Z M198.525391,30.7421875 C197.517573,30.7421875 196.700198,31.0820279 196.073242,31.7617188 C195.446286,32.4414096 195.044923,33.4140562 194.869141,34.6796875 L201.935547,34.6796875 L201.935547,34.2753906 C201.912109,33.150385 201.607425,32.2802765 201.021484,31.6650391 C200.435544,31.0498016 199.603521,30.7421875 198.525391,30.7421875 Z M215.171875,46 L210.074219,46 L210.074219,19 L215.171875,19 L215.171875,46 Z M231.554688,35.5761719 L231.554688,46 L229.392578,46 L229.392578,20.40625 L238.111328,20.40625 C240.771498,20.40625 242.872063,21.0859307 244.413086,22.4453125 C245.954109,23.8046943 246.724609,25.6738162 246.724609,28.0527344 C246.724609,30.4550901 245.983406,32.3095638 244.500977,33.6162109 C243.018547,34.9228581 240.871108,35.5761719 238.058594,35.5761719 L231.554688,35.5761719 Z M231.554688,33.7480469 L238.111328,33.7480469 C240.208995,33.7480469 241.808588,33.250005 242.910156,32.2539062 C244.011724,31.2578075 244.5625,29.8691495 244.5625,28.0878906 C244.5625,26.3183505 244.014654,24.9091849 242.918945,23.8603516 C241.823237,22.8115182 240.267588,22.2753907 238.251953,22.2519531 L231.554688,22.2519531 L231.554688,33.7480469 Z M262.878906,46 C262.667968,45.4023408 262.533203,44.517584 262.474609,43.3457031 C261.736324,44.3066454 260.795904,45.047849 259.65332,45.5693359 C258.510736,46.0908229 257.300788,46.3515625 256.023438,46.3515625 C254.195303,46.3515625 252.715826,45.841802 251.584961,44.8222656 C250.454096,43.8027293 249.888672,42.5136797 249.888672,40.9550781 C249.888672,39.1035064 250.659172,37.6386773 252.200195,36.5605469 C253.741219,35.4824165 255.888658,34.9433594 258.642578,34.9433594 L262.457031,34.9433594 L262.457031,32.78125 C262.457031,31.4218682 262.03809,30.352543 261.200195,29.5732422 C260.3623,28.7939414 259.140633,28.4042969 257.535156,28.4042969 C256.070305,28.4042969 254.857427,28.7792931 253.896484,29.5292969 C252.935542,30.2793006 252.455078,31.1816354 252.455078,32.2363281 L250.345703,32.21875 C250.345703,30.7070237 251.048821,29.3974665 252.455078,28.2900391 C253.861335,27.1826117 255.589833,26.6289062 257.640625,26.6289062 C259.761729,26.6289062 261.434564,27.1591744 262.65918,28.2197266 C263.883795,29.2802787 264.513672,30.7597561 264.548828,32.6582031 L264.548828,41.6582031 C264.548828,43.4980561 264.742186,44.8749954 265.128906,45.7890625 L265.128906,46 L262.878906,46 Z M256.269531,44.4882812 C257.675788,44.4882812 258.932612,44.1484409 260.040039,43.46875 C261.147466,42.7890591 261.953122,41.8808651 262.457031,40.7441406 L262.457031,36.5605469 L258.695312,36.5605469 C256.597646,36.5839845 254.957037,36.9677697 253.773438,37.7119141 C252.589838,38.4560584 251.998047,39.4785091 251.998047,40.7792969 C251.998047,41.8457085 252.393551,42.7304652 253.18457,43.4335938 C253.97559,44.1367223 255.0039,44.4882812 256.269531,44.4882812 Z M281.546875,41.1660156 C281.546875,40.1230417 281.127934,39.2851594 280.290039,38.6523438 C279.452144,38.0195281 278.189462,37.5244158 276.501953,37.1669922 C274.814445,36.8095685 273.504887,36.3994164 272.573242,35.9365234 C271.641597,35.4736305 270.950198,34.9082065 270.499023,34.2402344 C270.047849,33.5722623 269.822266,32.7636766 269.822266,31.8144531 C269.822266,30.3144456 270.449212,29.0752002 271.703125,28.0966797 C272.957038,27.1181592 274.56249,26.6289062 276.519531,26.6289062 C278.640636,26.6289062 280.342767,27.1533151 281.625977,28.2021484 C282.909186,29.2509818 283.550781,30.6191322 283.550781,32.3066406 L281.441406,32.3066406 C281.441406,31.1933538 280.975591,30.2675818 280.043945,29.5292969 C279.1123,28.7910119 277.937507,28.421875 276.519531,28.421875 C275.136712,28.421875 274.026371,28.7294891 273.188477,29.3447266 C272.350582,29.959964 271.931641,30.7597607 271.931641,31.7441406 C271.931641,32.6933641 272.28027,33.4287083 272.977539,33.9501953 C273.674808,34.4716823 274.94628,34.9492166 276.791992,35.3828125 C278.637705,35.8164084 280.020503,36.2792944 280.94043,36.7714844 C281.860356,37.2636743 282.542967,37.8554653 282.988281,38.546875 C283.433596,39.2382847 283.65625,40.076167 283.65625,41.0605469 C283.65625,42.6660237 283.008796,43.9492139 281.713867,44.9101562 C280.418939,45.8710986 278.728526,46.3515625 276.642578,46.3515625 C274.427723,46.3515625 272.631843,45.815435 271.254883,44.7431641 C269.877923,43.6708931 269.189453,42.3144613 269.189453,40.6738281 L271.298828,40.6738281 C271.38086,41.904303 271.899409,42.8623013 272.854492,43.5478516 C273.809575,44.2334019 275.072258,44.5761719 276.642578,44.5761719 C278.107429,44.5761719 279.291011,44.2539095 280.193359,43.609375 C281.095708,42.9648405 281.546875,42.1503955 281.546875,41.1660156 Z M299.775391,41.1660156 C299.775391,40.1230417 299.35645,39.2851594 298.518555,38.6523438 C297.68066,38.0195281 296.417977,37.5244158 294.730469,37.1669922 C293.04296,36.8095685 291.733403,36.3994164 290.801758,35.9365234 C289.870113,35.4736305 289.178713,34.9082065 288.727539,34.2402344 C288.276365,33.5722623 288.050781,32.7636766 288.050781,31.8144531 C288.050781,30.3144456 288.677728,29.0752002 289.931641,28.0966797 C291.185553,27.1181592 292.791006,26.6289062 294.748047,26.6289062 C296.869151,26.6289062 298.571283,27.1533151 299.854492,28.2021484 C301.137702,29.2509818 301.779297,30.6191322 301.779297,32.3066406 L299.669922,32.3066406 C299.669922,31.1933538 299.204106,30.2675818 298.272461,29.5292969 C297.340816,28.7910119 296.166023,28.421875 294.748047,28.421875 C293.365227,28.421875 292.254887,28.7294891 291.416992,29.3447266 C290.579097,29.959964 290.160156,30.7597607 290.160156,31.7441406 C290.160156,32.6933641 290.508786,33.4287083 291.206055,33.9501953 C291.903324,34.4716823 293.174795,34.9492166 295.020508,35.3828125 C296.86622,35.8164084 298.249019,36.2792944 299.168945,36.7714844 C300.088872,37.2636743 300.771482,37.8554653 301.216797,38.546875 C301.662112,39.2382847 301.884766,40.076167 301.884766,41.0605469 C301.884766,42.6660237 301.237311,43.9492139 299.942383,44.9101562 C298.647454,45.8710986 296.957042,46.3515625 294.871094,46.3515625 C292.656239,46.3515625 290.860358,45.815435 289.483398,44.7431641 C288.106438,43.6708931 287.417969,42.3144613 287.417969,40.6738281 L289.527344,40.6738281 C289.609375,41.904303 290.127925,42.8623013 291.083008,43.5478516 C292.038091,44.2334019 293.300773,44.5761719 294.871094,44.5761719 C296.335945,44.5761719 297.519527,44.2539095 298.421875,43.609375 C299.324223,42.9648405 299.775391,42.1503955 299.775391,41.1660156 Z M321.90625,36.6835938 C321.90625,39.6484523 321.250007,42.0009679 319.9375,43.7412109 C318.624993,45.481454 316.867199,46.3515625 314.664062,46.3515625 C312.062487,46.3515625 310.070319,45.4375091 308.6875,43.609375 L308.6875,53.3125 L306.595703,53.3125 L306.595703,26.9804688 L308.546875,26.9804688 L308.652344,29.6699219 C310.023444,27.642568 312.009753,26.6289062 314.611328,26.6289062 C316.884777,26.6289062 318.668939,27.4902258 319.963867,29.2128906 C321.258796,30.9355555 321.90625,33.3261566 321.90625,36.3847656 L321.90625,36.6835938 Z M319.796875,36.3144531 C319.796875,33.8886597 319.298833,31.9726633 318.302734,30.5664062 C317.306636,29.1601492 315.917978,28.4570312 314.136719,28.4570312 C312.84765,28.4570312 311.740239,28.767575 310.814453,29.3886719 C309.888667,30.0097687 309.17969,30.9121035 308.6875,32.0957031 L308.6875,41.21875 C309.191409,42.3085992 309.912105,43.1406221 310.849609,43.7148438 C311.787114,44.2890654 312.894525,44.5761719 314.171875,44.5761719 C315.941415,44.5761719 317.321284,43.8701242 318.311523,42.4580078 C319.301763,41.0458914 319.796875,38.9980603 319.796875,36.3144531 Z M325.404297,36.2089844 C325.404297,34.3808502 325.758786,32.7343823 326.467773,31.2695312 C327.176761,29.8046802 328.178704,28.6650431 329.473633,27.8505859 C330.768561,27.0361287 332.23632,26.6289062 333.876953,26.6289062 C336.408216,26.6289062 338.458977,27.5165927 340.029297,29.2919922 C341.599617,31.0673917 342.384766,33.4199072 342.384766,36.3496094 L342.384766,36.7890625 C342.384766,38.6289154 342.030277,40.2841723 341.321289,41.7548828 C340.612301,43.2255933 339.613288,44.359371 338.324219,45.15625 C337.03515,45.953129 335.564461,46.3515625 333.912109,46.3515625 C331.392566,46.3515625 329.344734,45.4638761 327.768555,43.6884766 C326.192375,41.9130771 325.404297,39.5605615 325.404297,36.6308594 L325.404297,36.2089844 Z M327.513672,36.7890625 C327.513672,39.0625114 328.102533,40.9287036 329.280273,42.3876953 C330.458014,43.846687 332.001944,44.5761719 333.912109,44.5761719 C335.810556,44.5761719 337.348627,43.846687 338.526367,42.3876953 C339.704107,40.9287036 340.292969,39.0039182 340.292969,36.6132812 L340.292969,36.2089844 C340.292969,34.7558521 340.02344,33.4257873 339.484375,32.21875 C338.94531,31.0117127 338.189458,30.0771517 337.216797,29.4150391 C336.244136,28.7529264 335.130866,28.421875 333.876953,28.421875 C332.001944,28.421875 330.472662,29.1572192 329.289062,30.6279297 C328.105463,32.0986402 327.513672,34.0234256 327.513672,36.4023438 L327.513672,36.7890625 Z M355.515625,28.7734375 C355.07031,28.6914058 354.595706,28.6503906 354.091797,28.6503906 C352.77929,28.6503906 351.66895,29.0165979 350.760742,29.7490234 C349.852535,30.481449 349.20508,31.5449149 348.818359,32.9394531 L348.818359,46 L346.726562,46 L346.726562,26.9804688 L348.783203,26.9804688 L348.818359,30.0039062 C349.931646,27.753895 351.718738,26.6289062 354.179688,26.6289062 C354.765628,26.6289062 355.228514,26.7050774 355.568359,26.8574219 L355.515625,28.7734375 Z M362.986328,22.1113281 L362.986328,26.9804688 L366.923828,26.9804688 L366.923828,28.703125 L362.986328,28.703125 L362.986328,41.3769531 C362.986328,42.4316459 363.176756,43.2167943 363.557617,43.7324219 C363.938478,44.2480495 364.574214,44.5058594 365.464844,44.5058594 C365.816408,44.5058594 366.384762,44.4472662 367.169922,44.3300781 L367.257812,46.0527344 C366.707028,46.2519541 365.957036,46.3515625 365.007812,46.3515625 C363.566399,46.3515625 362.517581,45.9326214 361.861328,45.0947266 C361.205075,44.2568317 360.876953,43.0234456 360.876953,41.3945312 L360.876953,28.703125 L357.378906,28.703125 L357.378906,26.9804688 L360.876953,26.9804688 L360.876953,22.1113281 L362.986328,22.1113281 Z"/>
    <rect width="80" height="60" y="2" fill="url(#a)" rx="6"/>
    <path fill="#FFFFFF" d="M22.236068,62 L37.236068,32 L22.236068,2 L17.763932,2 L32.763932,32 L17.763932,62 L22.236068,62 L22.236068,62 Z M34.236068,62 L49.236068,32 L34.236068,2 L29.763932,2 L44.763932,32 L29.763932,62 L34.236068,62 Z M46.236068,62 L61.236068,32 L46.236068,2 L41.763932,2 L56.763932,32 L41.763932,62 L46.236068,62 L46.236068,62 Z"/>
  </g>
</svg>

<svg xmlns="http://www.w3.org/2000/svg" width="380" height="64" viewBox="0 0 380 64"><defs><linearGradient id="a" x1="50%" x2="50%" y1="0%" y2="100%"><stop stop-color="#80DDF3" offset="0%"/><stop stop-color="#4990E2" offset="100%"/></linearGradient></defs><g fill="none" fill-rule="evenodd"><path fill="#2E2E2E" d="M107.56 41.764h11.196V46h-16.47V20.406h5.273v21.358zM132.466 46c-.235-.457-.404-1.025-.51-1.705-1.23 1.37-2.83 2.057-4.8 2.057-1.862 0-3.406-.54-4.63-1.618-1.225-1.078-1.838-2.437-1.838-4.078 0-2.015.747-3.562 2.24-4.64 1.495-1.08 3.654-1.623 6.478-1.635h2.338v-1.09c0-.878-.225-1.58-.677-2.108-.452-.528-1.164-.79-2.136-.79-.856 0-1.527.204-2.013.614-.485.41-.73.973-.73 1.687h-5.08c0-1.1.34-2.12 1.02-3.058.68-.938 1.64-1.673 2.884-2.206 1.242-.534 2.636-.8 4.183-.8 2.344 0 4.204.588 5.58 1.766 1.378 1.177 2.067 2.833 2.067 4.965v8.245c.01 1.805.263 3.17.756 4.096v.3h-5.133zm-4.2-3.533c.75 0 1.44-.167 2.073-.5.633-.335 1.1-.783 1.406-1.346v-3.268h-1.898c-2.543 0-3.897.878-4.06 2.636l-.018.3c0 .632.222 1.153.668 1.564.445.41 1.054.615 1.828.615zm23.167-10.723c-.692-.094-1.3-.14-1.83-.14-1.92 0-3.18.65-3.778 1.95V46h-5.08V26.98h4.8l.14 2.268c1.02-1.746 2.43-2.62 4.236-2.62.562 0 1.09.077 1.582.23l-.07 4.886zM164.37 46c-.233-.457-.403-1.025-.51-1.705-1.23 1.37-2.83 2.057-4.798 2.057-1.863 0-3.407-.54-4.63-1.618-1.226-1.078-1.838-2.437-1.838-4.078 0-2.015.747-3.562 2.24-4.64 1.495-1.08 3.654-1.623 6.478-1.635h2.338v-1.09c0-.878-.225-1.58-.676-2.108-.452-.528-1.163-.79-2.136-.79-.856 0-1.526.204-2.013.614-.486.41-.73.973-.73 1.687h-5.08c0-1.1.34-2.12 1.02-3.058.68-.938 1.64-1.673 2.883-2.206 1.242-.534 2.637-.8 4.184-.8 2.343 0 4.204.588 5.58 1.766 1.378 1.177 2.066 2.833 2.066 4.965v8.245c.012 1.805.264 3.17.756 4.096v.3h-5.133zm-4.2-3.533c.75 0 1.44-.167 2.074-.5.633-.335 1.102-.783 1.406-1.346v-3.268h-1.898c-2.543 0-3.897.878-4.06 2.636l-.018.3c0 .632.222 1.153.668 1.564.445.41 1.054.615 1.828.615zm19.336-2.672l3.533-12.815h5.308L181.932 46h-4.852l-6.416-19.02h5.31l3.532 12.815zm19.6 6.557c-2.79 0-5.06-.856-6.812-2.567-1.752-1.71-2.628-3.99-2.628-6.838v-.492c0-1.91.37-3.618 1.107-5.124.74-1.505 1.785-2.665 3.138-3.48 1.355-.814 2.9-1.22 4.633-1.22 2.602 0 4.65.82 6.144 2.46 1.494 1.64 2.24 3.967 2.24 6.978v2.075h-12.11c.163 1.242.66 2.238 1.485 2.988.826.75 1.872 1.126 3.137 1.126 1.956 0 3.486-.71 4.587-2.127l2.496 2.794c-.76 1.078-1.793 1.92-3.093 2.522-1.3.604-2.742.906-4.325.906zm-.58-15.61c-1.008 0-1.826.34-2.453 1.02-.627.68-1.028 1.652-1.204 2.918h7.066v-.405c-.024-1.125-.33-1.995-.915-2.61-.584-.615-1.416-.923-2.495-.923zM215.17 46h-5.098V19h5.098v27zm16.383-10.424V46h-2.162V20.406h8.718c2.66 0 4.762.68 6.303 2.04 1.54 1.36 2.312 3.228 2.312 5.607 0 2.402-.742 4.257-2.224 5.563-1.48 1.307-3.63 1.96-6.44 1.96h-6.505zm0-1.828h6.556c2.1 0 3.7-.498 4.8-1.494 1.102-.996 1.653-2.385 1.653-4.166 0-1.77-.548-3.18-1.644-4.228-1.097-1.048-2.652-1.585-4.668-1.608h-6.697v11.496zM262.88 46c-.212-.598-.347-1.482-.405-2.654-.74.96-1.68 1.702-2.822 2.223-1.142.52-2.352.782-3.63.782-1.828 0-3.307-.51-4.438-1.53-1.13-1.02-1.696-2.308-1.696-3.867 0-1.85.77-3.316 2.31-4.394 1.54-1.078 3.69-1.617 6.443-1.617h3.814V32.78c0-1.358-.42-2.427-1.257-3.207-.838-.78-2.06-1.17-3.665-1.17-1.465 0-2.678.376-3.64 1.126-.96.75-1.44 1.652-1.44 2.706l-2.11-.017c0-1.513.704-2.823 2.11-3.93 1.406-1.107 3.135-1.66 5.186-1.66 2.122 0 3.795.53 5.02 1.59 1.224 1.06 1.854 2.54 1.89 4.438v9c0 1.84.192 3.217.58 4.13V46h-2.25zm-6.61-1.512c1.406 0 2.663-.34 3.77-1.02 1.107-.68 1.913-1.587 2.417-2.724V36.56h-3.762c-2.097.024-3.738.408-4.922 1.152-1.183.744-1.775 1.767-1.775 3.067 0 1.066.396 1.95 1.187 2.654.79.703 1.82 1.054 3.085 1.054zm25.277-3.322c0-1.043-.42-1.88-1.257-2.514-.838-.632-2.1-1.128-3.788-1.485-1.688-.357-2.997-.768-3.93-1.23-.93-.463-1.622-1.03-2.073-1.697-.452-.668-.678-1.476-.678-2.426 0-1.5.627-2.74 1.88-3.717 1.255-.98 2.86-1.468 4.818-1.468 2.12 0 3.823.523 5.106 1.572 1.283 1.05 1.925 2.417 1.925 4.105h-2.11c0-1.114-.464-2.04-1.396-2.778-.932-.74-2.106-1.108-3.524-1.108-1.383 0-2.494.307-3.332.923-.837.615-1.256 1.415-1.256 2.4 0 .948.348 1.684 1.046 2.205.697.522 1.968 1 3.814 1.433 1.846.433 3.23.896 4.148 1.388.92.494 1.603 1.085 2.048 1.777.446.69.668 1.53.668 2.514 0 1.606-.647 2.89-1.942 3.85s-2.985 1.442-5.07 1.442c-2.216 0-4.012-.537-5.39-1.61-1.376-1.07-2.065-2.428-2.065-4.068h2.11c.08 1.23.6 2.188 1.554 2.874.956.685 2.218 1.028 3.79 1.028 1.463 0 2.647-.322 3.55-.967.902-.645 1.353-1.46 1.353-2.444zm18.228 0c0-1.043-.42-1.88-1.256-2.514-.84-.632-2.102-1.128-3.79-1.485-1.687-.357-2.997-.768-3.928-1.23-.932-.463-1.623-1.03-2.074-1.697-.452-.668-.677-1.476-.677-2.426 0-1.5.628-2.74 1.882-3.717 1.254-.98 2.86-1.468 4.816-1.468 2.12 0 3.823.523 5.106 1.572 1.284 1.05 1.925 2.417 1.925 4.105h-2.11c0-1.114-.466-2.04-1.398-2.778-.93-.74-2.106-1.108-3.524-1.108-1.383 0-2.493.307-3.33.923-.84.615-1.258 1.415-1.258 2.4 0 .948.35 1.684 1.046 2.205.697.522 1.97 1 3.815 1.433 1.846.433 3.23.896 4.15 1.388.92.494 1.6 1.085 2.047 1.777.445.69.668 1.53.668 2.514 0 1.606-.648 2.89-1.943 3.85s-2.985 1.442-5.07 1.442c-2.216 0-4.012-.537-5.39-1.61-1.376-1.07-2.064-2.428-2.064-4.068h2.11c.08 1.23.6 2.188 1.555 2.874.955.685 2.218 1.028 3.788 1.028 1.466 0 2.65-.322 3.552-.967.902-.645 1.353-1.46 1.353-2.444zm22.13-4.482c0 2.964-.655 5.317-1.967 7.057-1.313 1.74-3.07 2.612-5.274 2.612-2.602 0-4.594-.914-5.976-2.743v9.703h-2.092V26.98h1.95l.106 2.69c1.37-2.027 3.358-3.04 5.96-3.04 2.273 0 4.057.86 5.352 2.583 1.295 1.723 1.942 4.113 1.942 7.172v.3zm-2.108-.37c0-2.425-.498-4.34-1.494-5.748-.996-1.406-2.385-2.11-4.166-2.11-1.29 0-2.397.312-3.323.933-.925.62-1.634 1.522-2.127 2.706v9.123c.504 1.09 1.225 1.92 2.163 2.495.937.574 2.045.86 3.322.86 1.77 0 3.15-.705 4.14-2.117.99-1.412 1.485-3.46 1.485-6.144zm5.607-.105c0-1.83.355-3.476 1.064-4.94.71-1.465 1.71-2.605 3.006-3.42 1.295-.814 2.762-1.22 4.403-1.22 2.53 0 4.582.887 6.152 2.662 1.57 1.775 2.355 4.128 2.355 7.058v.44c0 1.84-.355 3.494-1.064 4.965-.708 1.47-1.707 2.604-2.996 3.4-1.29.798-2.76 1.197-4.412 1.197-2.52 0-4.567-.888-6.143-2.664-1.578-1.775-2.366-4.127-2.366-7.057v-.42zm2.11.58c0 2.273.59 4.14 1.766 5.598 1.178 1.46 2.722 2.188 4.632 2.188 1.9 0 3.437-.73 4.614-2.188 1.178-1.46 1.767-3.384 1.767-5.775v-.404c0-1.454-.27-2.784-.81-3.99-.538-1.208-1.294-2.143-2.266-2.805-.973-.662-2.086-.993-3.34-.993-1.875 0-3.404.735-4.588 2.206-1.185 1.47-1.776 3.395-1.776 5.774v.387zm28.002-8.017c-.446-.082-.92-.123-1.424-.123-1.313 0-2.423.367-3.33 1.1-.91.73-1.557 1.795-1.944 3.19V46h-2.09V26.98h2.055l.035 3.024c1.114-2.25 2.9-3.375 5.362-3.375.586 0 1.05.075 1.388.227l-.052 1.916zm7.47-6.662v4.87h3.938v1.723h-3.938v12.674c0 1.055.19 1.84.572 2.355.38.516 1.016.774 1.907.774.35 0 .92-.06 1.705-.176l.088 1.723c-.55.2-1.3.3-2.25.3-1.442 0-2.49-.42-3.147-1.258-.655-.838-.983-2.072-.983-3.7V28.703h-3.498V26.98h3.497v-4.87h2.11z"/><rect width="80" height="60" y="2" fill="url(#a)" rx="6"/><path fill="#FFF" d="M22.236 62l15-30-15-30h-4.472l15 30-15 30h4.472zm12 0l15-30-15-30h-4.472l15 30-15 30h4.472zm12 0l15-30-15-30h-4.472l15 30-15 30h4.472z"/></g></svg>
